icon-sprites/icons-svg - Copy/i35.svg

<svg version="1.1" viewBox="0 0 100 133.3" xmlns="http://www.w3.org/2000/svg">
 <g id="bwglobe" transform="matrix(1.778 0 0 1.778 3160 -1580)">
  <path d="m-1745 936.9c-1.092-1.494-2.308-4.3 0.045-7.803 3.556-5.302 5.438-1.675 7.251-5.577 0.9661-2.086 2.308-2.976 3.615-2.976 1.145 0 2.264 0.6854 3.078 1.857 0.9924 1.429 2.345 2.443 3.881 2.443 0.7552 0 1.555-0.246 2.377-0.8084-3.765 7.452-11.39 12.61-20.25 12.86" style="fill:#e8e7e6"/>
  <path d="m-1755 915.8c-3.853 0-6.967-1.084-3.493-6.222 2.311-3.41-2.884-7.382-6.642-7.382-0.7797 0-1.498 0.1699-2.075 0.5565 3.896-7.54 11.76-12.7 20.83-12.7 0.7399 0 1.47 0.041 2.193 0.1054-5.382 3.679 1.402 6.983 0.7575 9.379-0.6503 2.414-5.961 3.896-5.019 8.922 1.084 5.788-1.952 6.971-4.462 7.253-0.6966 0.0527-1.402 0.082-2.084 0.082" style="fill:#e8e7e6"/>
  <path d="m-1732 962.7h-28.12c-1.289 0-2.343-1.054-2.343-2.343 0-1.933 1.582-3.515 3.515-3.515h25.78c1.933 0 3.515 1.582 3.515 3.515 0 1.289-1.054 2.343-2.343 2.343" style="fill:#e8e7e6"/>
  <path d="m-1722 937-6.885-6.884c-0.4575-0.457-1.199-0.457-1.657 0-0.4575 0.457-0.4575 1.201 0 1.658l6.885 6.884c0.4575 0.457 1.199 0.457 1.657 0 0.4575-0.457 0.4575-1.201 0-1.658" style="fill:#100f0d"/>
  <path d="m-1769 891.6c-5.464 5.683-8.833 13.41-8.832 21.92 0 17.48 14.16 31.64 31.64 31.64 8.507 0 16.23-3.369 21.91-8.829 0.4669-0.4511 0.4815-1.195 0.033-1.658-0.4482-0.4687-1.19-0.4804-1.657-0.0351-5.269 5.067-12.41 8.178-20.29 8.178-8.093 0-15.41-3.275-20.71-8.577-5.302-5.308-8.578-12.62-8.579-20.72 0-7.879 3.115-15.02 8.178-20.29 0.4482-0.4687 0.4335-1.213-0.033-1.658-0.4663-0.4511-1.208-0.4335-1.657 0.0293" style="fill:#100f0d"/>
  <path d="m-1762 896.4-7.178-7.176c-0.4575-0.4628-1.199-0.4628-1.657 0-0.4575 0.457-0.4575 1.195 0 1.652l7.178 7.182c0.4576 0.457 1.199 0.457 1.657 0 0.4575-0.457 0.4575-1.201 0-1.658" style="fill:#100f0d"/>
  <path d="m-1747 944v12.89c0 0.6503 0.5243 1.172 1.172 1.172s1.172-0.5214 1.172-1.172v-12.89c0-0.6444-0.5243-1.172-1.172-1.172s-1.172 0.5272-1.172 1.172" style="fill:#100f0d"/>
  <path d="m-1733 956.9v-1.172h-25.78c-2.586 6e-3 -4.683 2.103-4.687 4.687 0 1.945 1.574 3.515 3.515 3.515h28.12c1.941 0 3.51-1.57 3.515-3.515 0-2.584-2.101-4.681-4.687-4.687v2.343c0.6433 0 1.224 0.2636 1.654 0.6913 0.4283 0.4277 0.689 1.008 0.6895 1.652-4e-4 0.3222-0.1294 0.6093-0.345 0.826-0.2179 0.2168-0.5056 0.3456-0.8266 0.3456h-28.12c-0.3216 0-0.6087-0.1289-0.8266-0.3456-0.2162-0.2168-0.345-0.5038-0.345-0.826 0-0.6444 0.2606-1.224 0.6895-1.652 0.43-0.4277 1.01-0.6913 1.654-0.6913h25.78v-1.172" style="fill:#100f0d"/>
  <path d="m-1766 903.7c0.331-0.2226 0.8131-0.3574 1.426-0.3574 0.6076 0 1.324 0.1406 2.039 0.3984 1.073 0.3925 2.137 1.06 2.878 1.816 0.3715 0.3808 0.6615 0.7733 0.8495 1.154 0.1887 0.3808 0.276 0.7323 0.276 1.06 0 0.3632-0.096 0.7147-0.3703 1.125-0.5642 0.8378-0.9813 1.588-1.267 2.296-0.2841 0.7089-0.4399 1.371-0.4411 2.015-0.01 0.7264 0.2267 1.441 0.6485 1.974 0.3123 0.4101 0.7077 0.7147 1.13 0.9432 0.6351 0.3456 1.336 0.539 2.075 0.662 0.7394 0.1172 1.521 0.1582 2.318 0.1582 0.7218 0 1.455-0.0351 2.172-0.0879l0.042-6e-3c0.5928-0.0644 1.234-0.1758 1.879-0.3925 0.9631-0.3164 1.963-0.8788 2.699-1.857 0.3662-0.4862 0.6597-1.066 0.8554-1.722 0.1962-0.662 0.297-1.4 0.297-2.226 0-0.7382-0.08-1.541-0.2461-2.431-0.064-0.3398-0.091-0.6503-0.092-0.9373 0-0.8143 0.2121-1.447 0.5595-2.05 0.5185-0.9022 1.401-1.699 2.296-2.502 0.4464-0.3984 0.894-0.8026 1.293-1.26 0.3955-0.457 0.7605-0.9842 0.9426-1.652 0.058-0.2168 0.084-0.4335 0.084-0.6444 0-0.3808-0.081-0.7264-0.1945-1.037-0.2003-0.5448-0.4938-1.008-0.8014-1.459-0.4628-0.6737-0.9713-1.312-1.336-1.922-0.1828-0.2988-0.3281-0.5858-0.4224-0.8495-0.094-0.2578-0.1383-0.4921-0.1383-0.703 0-0.2754 0.062-0.5272 0.2789-0.8729 0.2174-0.3398 0.6181-0.7616 1.301-1.23 0.5343-0.3632 0.6714-1.09 0.3065-1.629-0.365-0.5331-1.094-0.6678-1.628-0.3046-0.8665 0.5917-1.512 1.213-1.951 1.898-0.4417 0.6796-0.6538 1.435-0.6503 2.138 0 0.826 0.2572 1.552 0.5777 2.191 0.4856 0.9549 1.135 1.758 1.614 2.443 0.2402 0.3398 0.4365 0.6444 0.5542 0.8846 0.1207 0.2402 0.1494 0.4042 0.1465 0.4511v0.0351c-0.03 0.1113-0.096 0.2578-0.2214 0.4335-0.2162 0.3164-0.6128 0.7147-1.102 1.154-0.7311 0.6679-1.662 1.435-2.446 2.466-0.3907 0.5214-0.744 1.107-0.9977 1.775-0.2542 0.6737-0.4053 1.424-0.4048 2.244 0 0.4394 0.043 0.8963 0.1319 1.371 0.1441 0.7674 0.2062 1.429 0.2062 1.998 0 0.8495-0.1377 1.47-0.3363 1.939-0.15 0.3456-0.3339 0.6151-0.5478 0.8377-0.3204 0.3281-0.7229 0.5741-1.2 0.7499-0.4751 0.1758-1.019 0.2871-1.561 0.3456l0.1295 1.166-0.087-1.172c-0.6761 0.0527-1.354 0.082-1.998 0.082-1.26 6e-3 -2.397-0.1406-3.047-0.4218-0.3287-0.1406-0.5191-0.2929-0.6192-0.4276-0.097-0.1348-0.1553-0.2578-0.1612-0.5448 0-0.2519 0.067-0.6327 0.2713-1.137 0.2027-0.5038 0.5384-1.131 1.034-1.857 0.5173-0.7616 0.7762-1.617 0.7733-2.443 0-1.002-0.3556-1.927-0.8817-2.73-0.7955-1.201-1.981-2.179-3.299-2.888-1.322-0.703-2.781-1.148-4.204-1.154-0.9473 0-1.902 0.205-2.724 0.7499-0.5389 0.3574-0.6854 1.09-0.3269 1.629 0.358 0.539 1.086 0.6854 1.624 0.3222" style="fill:#100f0d"/>
  <path d="m-1726 923.1c-0.6655 0.4511-1.218 0.6034-1.717 0.6034-0.5056 0-0.9954-0.164-1.499-0.4921-0.4992-0.3281-0.9924-0.8319-1.42-1.447-0.4891-0.703-1.085-1.289-1.769-1.705-0.6831-0.4101-1.462-0.6561-2.271-0.6561-0.9227-6e-3 -1.858 0.3281-2.656 0.9549-0.8014 0.6268-1.479 1.529-2.022 2.695-0.1956 0.4218-0.3773 0.7089-0.5319 0.8963-0.1365 0.1699-0.2496 0.2636-0.3586 0.3398-0.1868 0.123-0.4001 0.1933-0.7756 0.2753-0.5478 0.123-1.43 0.2402-2.409 0.7909-0.9818 0.5507-1.999 1.494-3.086 3.117-1.106 1.64-1.552 3.246-1.548 4.669 0 0.9725 0.2033 1.851 0.4951 2.607 0.2917 0.7499 0.6707 1.377 1.035 1.875 0.3813 0.5214 1.114 0.6386 1.637 0.2578 0.5226-0.3808 0.6374-1.113 0.2561-1.64-0.2684-0.3632-0.5414-0.8202-0.7435-1.342-0.2027-0.5214-0.3362-1.107-0.3362-1.758 0-0.9432 0.273-2.045 1.151-3.363 0.8296-1.236 1.51-1.875 2.052-2.232 0.4095-0.2695 0.7487-0.3984 1.118-0.498 0.2759-0.0703 0.5712-0.123 0.911-0.1992 0.2536-0.0586 0.5331-0.1289 0.8307-0.246 0.4458-0.1699 0.9244-0.457 1.336-0.8846 0.4148-0.4276 0.768-0.9783 1.094-1.675 0.423-0.9139 0.8999-1.5 1.338-1.84 0.4417-0.3398 0.8307-0.4511 1.215-0.457 0.3369 0 0.6895 0.0996 1.056 0.3222 0.3644 0.2168 0.7346 0.5624 1.06 1.031 0.5648 0.8143 1.244 1.535 2.053 2.068 0.8061 0.5331 1.76 0.8788 2.79 0.8788 1.012 6e-3 2.059-0.3398 3.038-1.008 0.5343-0.3691 0.6719-1.096 0.307-1.629-0.365-0.539-1.094-0.6737-1.628-0.3105" style="fill:#100f0d"/>
  <path d="m-1723 913.5h-1.172c0 6.151-2.49 11.71-6.52 15.74-4.032 4.031-9.59 6.52-15.74 6.52-6.151 0-11.71-2.49-15.74-6.52-4.031-4.031-6.52-9.59-6.52-15.74 0-6.151 2.49-11.7 6.52-15.74 4.032-4.031 9.59-6.52 15.74-6.52 6.151 0 11.71 2.49 15.74 6.52 4.031 4.036 6.52 9.59 6.52 15.74h2.343c0-13.59-11.02-24.61-24.6-24.61-13.59 0-24.6 11.02-24.61 24.61 0 13.59 11.02 24.61 24.61 24.61 13.59 0 24.6-11.01 24.6-24.61h-1.172" style="fill:#100f0d"/>
 </g>
</svg>

<?xml version="1.0" encoding="UTF-8" standalone="no"?>
<svg xmlns:dc="http://purl.org/dc/elements/1.1/" xmlns:cc="http://creativecommons.org/ns#" xmlns:rdf="http://www.w3.org/1999/02/22-rdf-syntax-ns#" xmlns:svg="http://www.w3.org/2000/svg" xmlns="http://www.w3.org/2000/svg" xmlns:sodipodi="http://sodipodi.sourceforge.net/DTD/sodipodi-0.dtd" xmlns:inkscape="http://www.inkscape.org/namespaces/inkscape" version="1.1" viewBox="0 0 56.13538 74.999998" id="svg25" sodipodi:docname="i35.svg" width="56.13538" height="75" inkscape:version="0.92.2 (5c3e80d, 2017-08-06)">
  <metadata id="metadata31">
    <rdf:RDF>
      <cc:Work rdf:about="">
        <dc:format>image/svg+xml</dc:format>
        <dc:type rdf:resource="http://purl.org/dc/dcmitype/StillImage" />
        <dc:title></dc:title>
      </cc:Work>
    </rdf:RDF>
  </metadata>
  <defs id="defs29" />
  <sodipodi:namedview pagecolor="#ffffff" bordercolor="#666666" borderopacity="1" objecttolerance="10" gridtolerance="10" guidetolerance="10" inkscape:pageopacity="0" inkscape:pageshadow="2" inkscape:window-width="1560" inkscape:window-height="871" id="namedview27" showgrid="false" fit-margin-top="0" fit-margin-left="0" fit-margin-right="0" fit-margin-bottom="0" inkscape:zoom="1.7704426" inkscape:cx="-135.6912" inkscape:cy="67.217538" inkscape:window-x="0" inkscape:window-y="22" inkscape:window-maximized="0" inkscape:current-layer="svg25" />
  <g id="bwglobe" transform="matrix(0.9992925,0,0,0.9992925,1776.5742,-888.24802)">
    <path d="M -1745,936.9 C -1746.092,935.406 -1747.308,932.6 -1744.955,929.097 -1741.399,923.795 -1739.517,927.422 -1737.704,923.52 -1736.7379,921.434 -1735.396,920.544 -1734.089,920.544 -1732.944,920.544 -1731.825,921.2294 -1731.011,922.401 -1730.0186,923.83 -1728.666,924.844 -1727.13,924.844 -1726.3748,924.844 -1725.575,924.598 -1724.753,924.0356 -1728.518,931.4876 -1736.143,936.6456 -1745.003,936.8956" style="fill:#e8e7e6" id="path2" inkscape:connector-curvature="0" />
    <path d="M -1755,915.8 C -1758.853,915.8 -1761.967,914.716 -1758.493,909.578 -1756.182,906.168 -1761.377,902.196 -1765.135,902.196 -1765.9147,902.196 -1766.633,902.3659 -1767.21,902.7525 -1763.314,895.2125 -1755.45,890.0525 -1746.38,890.0525 -1745.6401,890.0525 -1744.91,890.0935 -1744.187,890.1579 -1749.569,893.8369 -1742.785,897.1409 -1743.4295,899.5369 -1744.0798,901.9509 -1749.3905,903.4329 -1748.4485,908.4589 -1747.3645,914.2469 -1750.4005,915.4299 -1752.9105,915.7119 -1753.6071,915.7646 -1754.3125,915.7939 -1754.9945,915.7939" style="fill:#e8e7e6" id="path4" inkscape:connector-curvature="0" />
    <path d="M -1732,962.7 H -1760.12 C -1761.409,962.7 -1762.463,961.646 -1762.463,960.357 -1762.463,958.424 -1760.881,956.842 -1758.948,956.842 H -1733.168 C -1731.235,956.842 -1729.653,958.424 -1729.653,960.357 -1729.653,961.646 -1730.707,962.7 -1731.996,962.7" style="fill:#e8e7e6" id="path6" inkscape:connector-curvature="0" />
    <path d="M -1722,937 -1728.885,930.116 C -1729.3425,929.659 -1730.084,929.659 -1730.542,930.116 -1730.9995,930.573 -1730.9995,931.317 -1730.542,931.774 L -1723.657,938.658 C -1723.1995,939.115 -1722.458,939.115 -1722,938.658 -1721.5425,938.201 -1721.5425,937.457 -1722,937" style="fill:#100f0d" id="path8" inkscape:connector-curvature="0" />
    <path d="M -1769,891.6 C -1774.464,897.283 -1777.833,905.01 -1777.832,913.52 -1777.832,931 -1763.672,945.16 -1746.192,945.16 -1737.685,945.16 -1729.962,941.791 -1724.282,936.331 -1723.8151,935.8799 -1723.8005,935.136 -1724.249,934.673 -1724.6972,934.2043 -1725.439,934.1926 -1725.906,934.6379 -1731.175,939.7049 -1738.316,942.8159 -1746.196,942.8159 -1754.289,942.8159 -1761.606,939.5409 -1766.906,934.2389 -1772.208,928.9309 -1775.484,921.6189 -1775.485,913.5189 -1775.485,905.6399 -1772.37,898.4989 -1767.307,893.2289 -1766.8588,892.7602 -1766.8735,892.0159 -1767.34,891.5709 -1767.8063,891.1198 -1768.548,891.1374 -1768.997,891.6002" style="fill:#100f0d" id="path10" inkscape:connector-curvature="0" />
    <path d="M -1762,896.4 -1769.178,889.224 C -1769.6355,888.7612 -1770.377,888.7612 -1770.835,889.224 -1771.2925,889.681 -1771.2925,890.419 -1770.835,890.876 L -1763.657,898.058 C -1763.1994,898.515 -1762.458,898.515 -1762,898.058 -1761.5425,897.601 -1761.5425,896.857 -1762,896.4" style="fill:#100f0d" id="path12" inkscape:connector-curvature="0" />
    <path d="M -1747,944 V 956.89 C -1747,957.5403 -1746.4757,958.062 -1745.828,958.062 -1745.1803,958.062 -1744.656,957.5406 -1744.656,956.89 V 944 C -1744.656,943.3556 -1745.1803,942.828 -1745.828,942.828 -1746.4757,942.828 -1747,943.3552 -1747,944" style="fill:#100f0d" id="path14" inkscape:connector-curvature="0" />
    <path d="M -1733,956.9 V 955.728 H -1758.78 C -1761.366,955.734 -1763.463,957.831 -1763.467,960.415 -1763.467,962.36 -1761.893,963.93 -1759.952,963.93 H -1731.832 C -1729.891,963.93 -1728.322,962.36 -1728.317,960.415 -1728.317,957.831 -1730.418,955.734 -1733.004,955.728 V 958.071 C -1732.3607,958.071 -1731.78,958.3346 -1731.35,958.7623 -1730.9217,959.19 -1730.661,959.7703 -1730.6605,960.4143 -1730.6609,960.7365 -1730.7899,961.0236 -1731.0055,961.2403 -1731.2234,961.4571 -1731.5111,961.5859 -1731.8321,961.5859 H -1759.9521 C -1760.2737,961.5859 -1760.5608,961.457 -1760.7787,961.2403 -1760.9949,961.0235 -1761.1237,960.7365 -1761.1237,960.4143 -1761.1237,959.7699 -1760.8631,959.1903 -1760.4342,958.7623 -1760.0042,958.3346 -1759.4242,958.071 -1758.7802,958.071 H -1733.0002 V 956.899" style="fill:#100f0d" id="path16" inkscape:connector-curvature="0" />
    <path d="M -1766,903.7 C -1765.669,903.4774 -1765.1869,903.3426 -1764.574,903.3426 -1763.9664,903.3426 -1763.25,903.4832 -1762.535,903.741 -1761.462,904.1335 -1760.398,904.801 -1759.657,905.557 -1759.2855,905.9378 -1758.9955,906.3303 -1758.8075,906.711 -1758.6188,907.0918 -1758.5315,907.4433 -1758.5315,907.771 -1758.5315,908.1342 -1758.6275,908.4857 -1758.9018,908.896 -1759.466,909.7338 -1759.8831,910.484 -1760.1688,911.192 -1760.4529,911.9009 -1760.6087,912.563 -1760.6099,913.207 -1760.6199,913.9334 -1760.3832,914.648 -1759.9614,915.181 -1759.6491,915.5911 -1759.2537,915.8957 -1758.8314,916.1242 -1758.1963,916.4698 -1757.4954,916.6632 -1756.7564,916.7862 -1756.017,916.9034 -1755.2354,916.9444 -1754.4384,916.9444 -1753.7166,916.9444 -1752.9834,916.9093 -1752.2664,916.8565 L -1752.2244,916.8505 C -1751.6316,916.7861 -1750.9904,916.6747 -1750.3454,916.458 -1749.3823,916.1416 -1748.3824,915.5792 -1747.6464,914.601 -1747.2802,914.1148 -1746.9867,913.535 -1746.791,912.879 -1746.5948,912.217 -1746.494,911.479 -1746.494,910.653 -1746.494,909.9148 -1746.574,909.112 -1746.7401,908.222 -1746.8041,907.8822 -1746.8311,907.5717 -1746.8321,907.2847 -1746.8321,906.4704 -1746.62,905.8377 -1746.2726,905.2347 -1745.7541,904.3325 -1744.8716,903.5357 -1743.9766,902.7327 -1743.5302,902.3343 -1743.0826,901.9301 -1742.6836,901.4727 -1742.2881,901.0157 -1741.9231,900.4885 -1741.741,899.8207 -1741.683,899.6039 -1741.657,899.3872 -1741.657,899.1763 -1741.657,898.7955 -1741.738,898.4499 -1741.8515,898.1393 -1742.0518,897.5945 -1742.3453,897.1313 -1742.6529,896.6803 -1743.1157,896.0066 -1743.6242,895.3683 -1743.9889,894.7583 -1744.1717,894.4595 -1744.317,894.1725 -1744.4113,893.9088 -1744.5053,893.651 -1744.5496,893.4167 -1744.5496,893.2058 -1744.5496,892.9304 -1744.4876,892.6786 -1744.2707,892.3329 -1744.0533,891.9931 -1743.6526,891.5713 -1742.9697,891.1029 -1742.4354,890.7397 -1742.2983,890.0129 -1742.6632,889.4739 -1743.0282,888.9408 -1743.7572,888.8061 -1744.2912,889.1693 -1745.1577,889.761 -1745.8032,890.3823 -1746.2422,891.0673 -1746.6839,891.7469 -1746.896,892.5023 -1746.8925,893.2053 -1746.8925,894.0313 -1746.6353,894.7573 -1746.3148,895.3963 -1745.8292,896.3512 -1745.1798,897.1543 -1744.7008,897.8393 -1744.4606,898.1791 -1744.2643,898.4837 -1744.1466,898.7239 -1744.0259,898.9641 -1743.9972,899.1281 -1744.0001,899.175 V 899.2101 C -1744.0301,899.3214 -1744.0961,899.4679 -1744.2215,899.6436 -1744.4377,899.96 -1744.8343,900.3583 -1745.3235,900.7976 -1746.0546,901.4655 -1746.9855,902.2326 -1747.7695,903.2636 -1748.1602,903.785 -1748.5135,904.3706 -1748.7672,905.0386 -1749.0214,905.7123 -1749.1725,906.4626 -1749.172,907.2826 -1749.172,907.722 -1749.129,908.1789 -1749.0401,908.6536 -1748.896,909.421 -1748.8339,910.0826 -1748.8339,910.6516 -1748.8339,911.5011 -1748.9716,912.1216 -1749.1702,912.5906 -1749.3202,912.9362 -1749.5041,913.2057 -1749.718,913.4283 -1750.0384,913.7564 -1750.4409,914.0024 -1750.918,914.1782 -1751.3931,914.354 -1751.937,914.4653 -1752.479,914.5238 L -1752.3495,915.6898 -1752.4365,914.5178 C -1753.1126,914.5705 -1753.7905,914.5998 -1754.4345,914.5998 -1755.6945,914.6058 -1756.8315,914.4592 -1757.4815,914.178 -1757.8102,914.0374 -1758.0006,913.8851 -1758.1007,913.7504 -1758.1977,913.6156 -1758.256,913.4926 -1758.2619,913.2056 -1758.2619,912.9537 -1758.1949,912.5729 -1757.9906,912.0686 -1757.7879,911.5648 -1757.4522,910.9376 -1756.9566,910.2116 -1756.4393,909.45 -1756.1804,908.5946 -1756.1833,907.7686 -1756.1833,906.7666 -1756.5389,905.8416 -1757.065,905.0386 -1757.8605,903.8376 -1759.046,902.8596 -1760.364,902.1506 -1761.686,901.4476 -1763.145,901.0026 -1764.568,900.9966 -1765.5153,900.9966 -1766.47,901.2016 -1767.292,901.7465 -1767.8309,902.1039 -1767.9774,902.8365 -1767.6189,903.3755 -1767.2609,903.9145 -1766.5329,904.0609 -1765.9949,903.6977" style="fill:#100f0d" id="path18" inkscape:connector-curvature="0" />
    <path d="M -1726,923.1 C -1726.6655,923.5511 -1727.218,923.7034 -1727.717,923.7034 -1728.2226,923.7034 -1728.7124,923.5394 -1729.216,923.2113 -1729.7152,922.8832 -1730.2084,922.3794 -1730.636,921.7643 -1731.1251,921.0613 -1731.721,920.4753 -1732.405,920.0593 -1733.0881,919.6492 -1733.867,919.4032 -1734.676,919.4032 -1735.5987,919.3972 -1736.534,919.7313 -1737.332,920.3581 -1738.1334,920.9849 -1738.811,921.8871 -1739.354,923.0531 -1739.5496,923.4749 -1739.7313,923.762 -1739.8859,923.9494 -1740.0224,924.1193 -1740.1355,924.213 -1740.2445,924.2892 -1740.4313,924.4122 -1740.6446,924.4825 -1741.0201,924.5645 -1741.5679,924.6875 -1742.4501,924.8047 -1743.4291,925.3554 -1744.4109,925.9061 -1745.4281,926.8494 -1746.5151,928.4724 -1747.6211,930.1124 -1748.0671,931.7184 -1748.0631,933.1414 -1748.0631,934.1139 -1747.8598,934.9924 -1747.568,935.7484 -1747.2763,936.4983 -1746.8973,937.1254 -1746.533,937.6234 -1746.1517,938.1448 -1745.419,938.262 -1744.896,937.8812 -1744.3734,937.5004 -1744.2586,936.7682 -1744.6399,936.2412 -1744.9083,935.878 -1745.1813,935.421 -1745.3834,934.8992 -1745.5861,934.3778 -1745.7196,933.7922 -1745.7196,933.1412 -1745.7196,932.198 -1745.4466,931.0962 -1744.5686,929.7782 -1743.739,928.5422 -1743.0586,927.9032 -1742.5166,927.5462 -1742.1071,927.2767 -1741.7679,927.1478 -1741.3986,927.0482 -1741.1227,926.9779 -1740.8274,926.9252 -1740.4876,926.849 -1740.234,926.7904 -1739.9545,926.7201 -1739.6569,926.603 -1739.2111,926.4331 -1738.7325,926.146 -1738.3209,925.7184 -1737.9061,925.2908 -1737.5529,924.7401 -1737.2269,924.0434 -1736.8039,923.1295 -1736.327,922.5434 -1735.8889,922.2034 -1735.4472,921.8636 -1735.0582,921.7523 -1734.6739,921.7464 -1734.337,921.7464 -1733.9844,921.846 -1733.6179,922.0686 -1733.2535,922.2854 -1732.8833,922.631 -1732.5579,923.0996 -1731.9931,923.9139 -1731.3139,924.6346 -1730.5049,925.1676 -1729.6988,925.7007 -1728.7449,926.0464 -1727.7149,926.0464 -1726.7029,926.0524 -1725.6559,925.7066 -1724.6769,925.0384 -1724.1426,924.6693 -1724.005,923.9424 -1724.3699,923.4094 -1724.7349,922.8704 -1725.4639,922.7357 -1725.9979,923.0989" style="fill:#100f0d" id="path20" inkscape:connector-curvature="0" />
    <path d="M -1723,913.5 H -1724.172 C -1724.172,919.651 -1726.662,925.21 -1730.692,929.24 -1734.724,933.271 -1740.282,935.76 -1746.432,935.76 -1752.583,935.76 -1758.142,933.27 -1762.172,929.24 -1766.203,925.209 -1768.692,919.65 -1768.692,913.5 -1768.692,907.349 -1766.202,901.8 -1762.172,897.76 -1758.14,893.729 -1752.582,891.24 -1746.432,891.24 -1740.281,891.24 -1734.722,893.73 -1730.692,897.76 -1726.661,901.796 -1724.172,907.35 -1724.172,913.5 H -1721.829 C -1721.829,899.91 -1732.849,888.89 -1746.429,888.89 -1760.019,888.89 -1771.029,899.91 -1771.039,913.5 -1771.039,927.09 -1760.019,938.11 -1746.429,938.11 -1732.839,938.11 -1721.829,927.1 -1721.829,913.5 H -1723.001" style="fill:#100f0d" id="path22" inkscape:connector-curvature="0" />
  </g>
</svg>
